X:1
T:Memory of Departed Worth
T:Memory of Departed Worth
T:Nathaniel Gow
C:Nathaniel Gow
L:1/8
M:4/4
K:Eb
V:1 treble 
V:1
 G/F/ | TE>DC=B, (C/B,/)(C/D/) TE>F | GGA>G F/E/D/C/ B,G/F/ | TE>D C=B, (CDEF) | %4
 G/(g/f/e/){e} d/c/d/=B/{B} Tc2 c :| Te/>f/ | g(f/4e/4d/4e/4) cTe/>f/ .g.e .c(d/e/) | %7
 (f/g/)(=a/b/) (a/b/)(g/e/) (f/e/)(d/c/) Be/>f/ | g(f/4e/4d/4e/4) cTe/>f/ .g.e .c(d/e/) | %9
 (f/g/)a/>f/ g/>e/f/>d/{B} Tc2 C (e/f/) | g(f/4e/4d/4e/4) cTe/>f/ .g.e .c(d/e/) | %11
 (f/g/)(=a/b/) (a/b/)(g/e/) (f/e/)d/c/ Be/d/ | c>GTE>D (CDE)!fermata!F | %13
 G/(g/f/)e/{e} (d/c/).d/=B/ Tc2 C || %14

